Origami/24x24/apps/visual-studio-code.svg

<svg width="24" height="24" version="1" xmlns="http://www.w3.org/2000/svg">
 <path d="m15.890625 2.5015904a3.0003 3.0003 0 0 0 -1.908203 0.7773438l-4.0703126 3.7011719-1.0507813-0.8320313a3.0003 3.0003 0 0 0 -3.203125 -0.3320313l-2 1a3.0003 3.0003 0 0 0 -1.6582031 2.6835938v5.9999997a3.0003 3.0003 0 0 0 1.6582031 2.683594l2 1a3.0003 3.0003 0 0 0 3.203125 -0.332032l1.0507813-0.832031 4.0703126 3.701172a3.0003 3.0003 0 0 0 3.359375 0.462891l3-1.5a3.0003 3.0003 0 0 0 1.658203 -2.683594v-11a3.0003 3.0003 0 0 0 -1.658203 -2.6835938l-3-1.5a3.0003 3.0003 0 0 0 -1.451172 -0.3144531z" style="opacity:.2"/>
 <path d="m15.890625 2.0019531a3.0003 3.0003 0 0 0 -1.908203 0.7773438l-4.0703126 3.7011719-1.0507813-0.8320313a3.0003 3.0003 0 0 0 -3.203125 -0.3320313l-2 1a3.0003 3.0003 0 0 0 -1.6582031 2.6835938v6a3.0003 3.0003 0 0 0 1.6582031 2.683594l2 1a3.0003 3.0003 0 0 0 3.203125 -0.332032l1.0507813-0.832031 4.0703126 3.701172a3.0003 3.0003 0 0 0 3.359375 0.462891l3-1.5a3.0003 3.0003 0 0 0 1.658203 -2.683594v-11a3.0003 3.0003 0 0 0 -1.658203 -2.6835938l-3-1.5a3.0003 3.0003 0 0 0 -1.451172 -0.3144531z" style="fill:#373277"/>
 <path d="m16 5.5-5.9531 5.4121-3.0469-2.4121-2 1v6l2 1 3.0469-2.412 5.9531 5.412 3-1.5v-11zm0 3.875v6.25l-3.947-3.125zm-9 1.943 1.3008 1.182-1.3008 1.182z" style="fill-rule:evenodd;opacity:.2"/>
 <g style="fill-rule:evenodd;fill:#ffffff">
  <path d="m16 5l-5.953125 5.412109-3.046875-2.412109-2 1v6l2 1 3.046875-2.412109 5.953125 5.412109 3-1.5v-11l-3-1.5zm0 3.875v6.25l-3.947266-3.125 3.947266-3.125zm-9 1.943359l1.3007812 1.181641-1.3007812 1.181641v-2.363282z"/>
  <path d="m16 5l-5.953125 5.412109-3.046875-2.412109-2 1v6l2 1 3.046875-2.412109 5.953125 5.412109 3-1.5v-11l-3-1.5zm0 3.875v6.25l-3.947266-3.125 3.947266-3.125zm-9 1.943359l1.3007812 1.181641-1.3007812 1.181641v-2.363282z" style="fill:none"/>
 </g>
 <path d="m15.890625 2.0019531a3.0003 3.0003 0 0 0 -1.908203 0.7773438l-4.0703126 3.7011719-1.0507813-0.8320313a3.0003 3.0003 0 0 0 -3.203125 -0.3320313l-2 1a3.0003 3.0003 0 0 0 -1.6582031 2.6835938v0.4785156a3.0003 3.0003 0 0 1 1.6582031 -2.6621094l2-1a3.0003 3.0003 0 0 1 3.203125 0.3320313l1.0507813 0.8320313 4.0703126-3.7011719a3.0003 3.0003 0 0 1 1.908203 -0.7773438 3.0003 3.0003 0 0 1 1.451172 0.3144531l3 1.5a3.0003 3.0003 0 0 1 1.658203 2.6835938v-0.5a3.0003 3.0003 0 0 0 -1.658203 -2.6835938l-3-1.5a3.0003 3.0003 0 0 0 -1.451172 -0.3144531z" style="fill:#ffffff;opacity:.1"/>
</svg>

<svg xmlns="http://www.w3.org/2000/svg" width="24" height="24" version="1">
 <path style="opacity:0.2" d="M 15.890625,2.5015904 A 3.0003,3.0003 0 0 0 13.982422,3.2789342 L 9.9121094,6.9801061 8.8613281,6.1480748 A 3.0003,3.0003 0 0 0 5.6582031,5.8160435 l -2,1 A 3.0003,3.0003 0 0 0 2,9.4996373 v 5.9999997 a 3.0003,3.0003 0 0 0 1.6582031,2.683594 l 2,1 a 3.0003,3.0003 0 0 0 3.203125,-0.332032 l 1.0507813,-0.832031 4.0703126,3.701172 a 3.0003,3.0003 0 0 0 3.359375,0.462891 l 3,-1.5 A 3.0003,3.0003 0 0 0 22,17.999637 V 6.9996373 A 3.0003,3.0003 0 0 0 20.341797,4.3160435 l -3,-1.5 A 3.0003,3.0003 0 0 0 15.890625,2.5015904 Z"/>
 <path style="fill:#373277" d="M 15.890625,2.0019531 A 3.0003,3.0003 0 0 0 13.982422,2.7792969 L 9.9121094,6.4804688 8.8613281,5.6484375 A 3.0003,3.0003 0 0 0 5.6582031,5.3164062 l -2,1 A 3.0003,3.0003 0 0 0 2,9 v 6 a 3.0003,3.0003 0 0 0 1.6582031,2.683594 l 2,1 a 3.0003,3.0003 0 0 0 3.203125,-0.332032 l 1.0507813,-0.832031 4.0703126,3.701172 a 3.0003,3.0003 0 0 0 3.359375,0.462891 l 3,-1.5 A 3.0003,3.0003 0 0 0 22,17.5 V 6.5 A 3.0003,3.0003 0 0 0 20.341797,3.8164062 l -3,-1.5 A 3.0003,3.0003 0 0 0 15.890625,2.0019531 Z"/>
 <path style="opacity:0.2;fill-rule:evenodd" d="M 16,5.5 10.0469,10.9121 7,8.5 5,9.5 v 6 l 2,1 3.0469,-2.412 L 16,19.5 19,18 V 7 Z m 0,3.875 v 6.25 L 12.053,12.5 Z M 7,11.318 8.3008,12.5 7,13.682 Z"/>
 <g style="fill:#ffffff;fill-rule:evenodd">
  <path d="M 16 5 L 10.046875 10.412109 L 7 8 L 5 9 L 5 15 L 7 16 L 10.046875 13.587891 L 16 19 L 19 17.5 L 19 6.5 L 16 5 z M 16 8.875 L 16 15.125 L 12.052734 12 L 16 8.875 z M 7 10.818359 L 8.3007812 12 L 7 13.181641 L 7 10.818359 z"/>
  <path style="fill:none" d="M 16 5 L 10.046875 10.412109 L 7 8 L 5 9 L 5 15 L 7 16 L 10.046875 13.587891 L 16 19 L 19 17.5 L 19 6.5 L 16 5 z M 16 8.875 L 16 15.125 L 12.052734 12 L 16 8.875 z M 7 10.818359 L 8.3007812 12 L 7 13.181641 L 7 10.818359 z"/>
 </g>
 <path style="opacity:0.1;fill:#ffffff" d="M 15.890625 2.0019531 A 3.0003 3.0003 0 0 0 13.982422 2.7792969 L 9.9121094 6.4804688 L 8.8613281 5.6484375 A 3.0003 3.0003 0 0 0 5.6582031 5.3164062 L 3.6582031 6.3164062 A 3.0003 3.0003 0 0 0 2 9 L 2 9.4785156 A 3.0003 3.0003 0 0 1 3.6582031 6.8164062 L 5.6582031 5.8164062 A 3.0003 3.0003 0 0 1 8.8613281 6.1484375 L 9.9121094 6.9804688 L 13.982422 3.2792969 A 3.0003 3.0003 0 0 1 15.890625 2.5019531 A 3.0003 3.0003 0 0 1 17.341797 2.8164062 L 20.341797 4.3164062 A 3.0003 3.0003 0 0 1 22 7 L 22 6.5 A 3.0003 3.0003 0 0 0 20.341797 3.8164062 L 17.341797 2.3164062 A 3.0003 3.0003 0 0 0 15.890625 2.0019531 z"/>
</svg>
